src/plugin.svg

<?xml version="1.0" encoding="UTF-8" standalone="no"?>
<svg width="20px" height="20px" viewBox="0 0 20 20" version="1.1" xmlns="http://www.w3.org/2000/svg" xmlns:xlink="http://www.w3.org/1999/xlink">
    <!-- Generator: Sketch 3.7.2 (28276) - http://www.bohemiancoding.com/sketch -->
    <title>plugin</title>
    <desc>Created with Sketch.</desc>
    <defs></defs>
    <g id="Page-1" stroke="none" stroke-width="1" fill="none" fill-rule="evenodd">
        <g id="plugin" fill="#000000">
            <path d="M20,14 L20,18.0059397 C20,19.1072288 19.1054862,20 18.0059397,20 L14,20 L14,17.9981014 C14,16.8867064 13.1045695,16 12,16 C10.8877296,16 10,16.8945804 10,17.9981014 L10,20 L5.99406028,20 C4.8927712,20 4,19.1054862 4,18.0059397 L4,14 L1.99810135,14 C0.894580447,14 0,13.1122704 0,12 C0,10.8954305 0.886706352,10 1.99810135,10 L4,10 L4,5.99406028 C4,4.8927712 4.89451376,4 5.99406028,4 L10,4 L10,1.99810135 C10,0.894580447 10.8877296,0 12,0 C13.1045695,0 14,0.886706352 14,1.99810135 L14,4 L18.0059397,4 C19.1072288,4 20,4.89451376 20,5.99406028 L20,10 L17.9981014,10 C16.8867064,10 16,10.8954305 16,12 C16,13.1122704 16.8945804,14 17.9981014,14 L20,14 Z" id="Combined-Shape"></path>
        </g>
    </g>
</svg>

<svg xmlns="http://www.w3.org/2000/svg" viewBox="0 0 20 20"><path d="M20 14v4a2 2 0 0 1-2 2h-4v-2a2 2 0 0 0-2-2 2 2 0 0 0-2 2v2H6a2 2 0 0 1-2-2v-4H2a2 2 0 0 1-2-2 2 2 0 0 1 2-2h2V6c0-1.1.9-2 2-2h4V2a2 2 0 0 1 2-2 2 2 0 0 1 2 2v2h4a2 2 0 0 1 2 2v4h-2a2 2 0 0 0-2 2 2 2 0 0 0 2 2h2z"/></svg>
